preferences/22/yast-update.svg

<svg width="22" height="22" version="1.1" viewBox="0 0 22 22" xmlns="http://www.w3.org/2000/svg" xmlns:xlink="http://www.w3.org/1999/xlink">
<defs>
<linearGradient id="linearGradient3403" x1="6.9492" x2="11.215" y1="4.5549" y2="59.052" gradientUnits="userSpaceOnUse">
<stop style="stop-color:#32373c" offset="0"/>
<stop style="stop-color:#1a1a1a" offset=".36805"/>
<stop style="stop-color:#31363b" offset="1"/>
</linearGradient>
<linearGradient id="linearGradient20558" x1="25.802" x2="25.111" y1="20.374" y2="58.913" gradientUnits="userSpaceOnUse">
<stop style="stop-color:#3d3d3d" offset="0"/>
<stop offset=".61772"/>
<stop style="stop-color:#3d3d3d" offset="1"/>
</linearGradient>
<linearGradient id="linearGradient4557" x1="43.5" x2="44.142" y1="64.012" y2=".30621" gradientTransform="translate(.36068 -.13017)" gradientUnits="userSpaceOnUse">
<stop style="stop-color:#141618" offset="0"/>
<stop style="stop-color:#686868" offset=".51821"/>
<stop style="stop-color:#31363b" offset="1"/>
</linearGradient>
<linearGradient id="linearGradient919" x1="7.4006" x2="33.063" y1="41.743" y2="7.1074" gradientTransform="matrix(.44402 0 0 .44402 .42103 .35175)" gradientUnits="userSpaceOnUse">
<stop style="stop-opacity:.99608" offset="0"/>
<stop style="stop-color:#353a3f;stop-opacity:.99608" offset="1"/>
</linearGradient>
<linearGradient id="p" x1="25" x2="25" y1="8" y2="2" gradientUnits="userSpaceOnUse" xlink:href="#j"/>
<linearGradient id="j" x2="0" y1="30" y2="8" gradientUnits="userSpaceOnUse">
<stop stop-color="#cea476" offset="0"/>
<stop stop-color="#dab58b" offset="1"/>
</linearGradient>
<linearGradient id="k" x2="0" y1="30" y2="8" gradientUnits="userSpaceOnUse">
<stop stop-color="#cfd2d5" offset="0"/>
<stop stop-color="#eff0f1" offset="1"/>
</linearGradient>
<linearGradient id="o" x1="411.43" x2="411.43" y1="543.8" y2="512.8" gradientTransform="matrix(.35 0 0 .70968 -120 -355.92)" gradientUnits="userSpaceOnUse">
<stop stop-color="#73ba25" offset="0"/>
<stop stop-color="#81c13b" stop-opacity=".85" offset="1"/>
</linearGradient>
<linearGradient id="n" x1="411.57" x2="411.57" y1="512.8" y2="503.8" gradientTransform="matrix(.66667 0 0 .66667 -256.38 -333.87)" gradientUnits="userSpaceOnUse" xlink:href="#i">
<stop stop-color="#ebc69a" offset="0"/>
<stop stop-color="#f4e0c8" stop-opacity="0" offset="1"/>
</linearGradient>
<linearGradient id="i" x1="408.57" x2="408.57" y1="512.8" y2="504.7" gradientTransform="matrix(.66667 0 0 -.37037 -256.38 197.93)" gradientUnits="userSpaceOnUse">
<stop stop-color="#ebc69a" offset="0"/>
<stop stop-color="#73ba25" stop-opacity="0" offset="1"/>
</linearGradient>
<linearGradient id="m" x1="18" x2="30" y1="18" y2="30" gradientUnits="userSpaceOnUse">
<stop stop-color="#292c2f" offset="0"/>
<stop stop-opacity="0" offset="1"/>
</linearGradient>
<linearGradient id="l" x1="22" x2="22" y1="30" y2="8" gradientTransform="matrix(0,-1,-1,0,44,44)" gradientUnits="userSpaceOnUse" xlink:href="#k"/>
<linearGradient id="linearGradient956" x2="0" y1="30" y2="8" gradientUnits="userSpaceOnUse" xlink:href="#j"/>
<linearGradient id="linearGradient958" x2="0" y1="30" y2="8" gradientUnits="userSpaceOnUse" xlink:href="#k"/>
<linearGradient id="linearGradient960" x1="408.57" x2="408.57" y1="512.8" y2="504.7" gradientTransform="matrix(.66667 0 0 -.37037 -256.38 197.93)" gradientUnits="userSpaceOnUse" xlink:href="#i"/>
</defs>
<rect x="1.8254" y="1.692" width="18.686" height="18.965" ry="0" style="fill-rule:evenodd;fill:url(#linearGradient919)"/>
<g transform="matrix(.67403 0 0 .67403 .76314 -.46463)">
<path d="m6 2-4 6h28l-4-6h-19z" fill="url(#p)" fill-rule="evenodd" style="fill:url(#p)"/>
<path d="m2 8h28v22h-28z" fill="url(#j)" style="fill:url(#linearGradient956)"/>
<path d="m2 8h12v22h-12z" fill="url(#k)" style="fill:url(#linearGradient958)"/>
<path d="m14 8h16v22h-16z" fill="url(#o)" style="fill:url(#o)"/>
<path d="m3 24v5h5v-5zm1 1h1v1h1v-1h1v2h-1v1h-1v-1h-1z" fill="#5c4c3e"/>
<g stroke-opacity=".55" stroke-width="1.867">
<path d="m14 2v9l1-1 1 1 1-1s1 1 1 0.972v-8.972z" fill="#f4e0c8"/>
<path d="m14 2h4v6h-4z" fill="url(#n)" style="fill:url(#n)"/>
<path d="m14 8v3l1-1 1 1 1-1s1 1 1 0.973v-2.973z" fill="url(#i)" style="fill:url(#linearGradient960)"/>
</g>
<path d="M 18.969,16.844 30,27.875 v -6.36 L 26.243,17.757 22,16 Z M 16.844,18.969 27.875,30 h -6.36 L 17.757,26.243 16,22 Z" fill="url(#m)" opacity=".2" style="fill:url(#m)"/>
<path d="m28 22a5.96 5.96 0 0 1-0.844 3.031l-2.687-2.687 0.718-0.719 1.625 1.625c0.052-0.195 0.098-0.39 0.125-0.594 8e-3 -0.052 0.026-0.103 0.032-0.156 0.017-0.168 0.031-0.327 0.031-0.5a5 5 0 0 0-5-5c-0.243 0-0.486 0.028-0.719 0.063-0.136 0.02-0.274 0.031-0.406 0.062a4.737 4.737 0 0 0-0.813 0.281c-0.03 0.014-0.063 0.018-0.093 0.032-0.092 0.04-0.164 0.108-0.25 0.156-8e-3 4e-3 -0.023-5e-3 -0.032 0l-0.718-0.75a5.96 5.96 0 0 1 3.031-0.844 6 6 0 0 1 6 6zm-2.969 5.156a5.96 5.96 0 0 1-3.031 0.844 6 6 0 0 1-6-6 5.96 5.96 0 0 1 0.844-3.031l0.75 0.75 1.906 1.937-0.688 0.688-1.625-1.594c-0.05 0.195-0.097 0.39-0.125 0.594-7e-3 0.052-0.025 0.103-0.03 0.156-0.018 0.168-0.032 0.327-0.032 0.5s0.014 0.332 0.031 0.5 0.03 0.337 0.063 0.5a5.017 5.017 0 0 0 4.906 4c0.248 0 0.48-0.028 0.719-0.063 0.136-0.02 0.274-0.031 0.406-0.062 0.287-0.067 0.548-0.167 0.813-0.281 0.03-0.013 0.063-0.018 0.093-0.032 0.09-0.04 0.165-0.108 0.25-0.156h0.032z" fill="url(#l)" style="fill:url(#l)"/>
<path d="m2 29v1h12v-1z" fill="#adb1b3"/>
<path d="m14 29h16v1h-16z" fill="#649e26"/>
</g>
<path transform="matrix(.33385 0 0 .33385 .4653 .3628)" d="m4.7043 3.9815-0.012938 56.82h53.904l1.0222-2.8664s-23.875 0.76639-32.844-4.1404c-10.516-5.7529-15.372-49.697-15.372-49.697z" style="fill:url(#linearGradient3403);mix-blend-mode:normal;stroke-linejoin:round;stroke-width:1.1624;stroke:url(#linearGradient20558)"/>
<rect transform="matrix(.31274 0 0 .31211 1.0262 1.0374)" x="1.0324" y=".59551" width="62.567" height="62.867" rx="5.803" ry="6.2447" style="fill:none;stroke-linejoin:round;stroke-miterlimit:7.8;stroke-opacity:.99515;stroke-width:3.7137;stroke:url(#linearGradient4557)"/>
</svg>

<?xml version="1.0" encoding="UTF-8" standalone="no"?>
<!-- Created with Inkscape (http://www.inkscape.org/) -->

<svg
   width="22"
   height="22"
   version="1.1"
   viewBox="0 0 22 22"
   id="svg22"
   sodipodi:docname="yast-update.svg"
   inkscape:version="1.1.2 (0a00cf5339, 2022-02-04)"
   xmlns:inkscape="http://www.inkscape.org/namespaces/inkscape"
   xmlns:sodipodi="http://sodipodi.sourceforge.net/DTD/sodipodi-0.dtd"
   xmlns:xlink="http://www.w3.org/1999/xlink"
   xmlns="http://www.w3.org/2000/svg"
   xmlns:svg="http://www.w3.org/2000/svg">
  <sodipodi:namedview
     id="namedview24"
     pagecolor="#ffffff"
     bordercolor="#666666"
     borderopacity="1.0"
     inkscape:showpageshadow="2"
     inkscape:pageopacity="0.0"
     inkscape:pagecheckerboard="0"
     inkscape:deskcolor="#d1d1d1"
     showgrid="false"
     inkscape:zoom="25.62"
     inkscape:cx="16.978923"
     inkscape:cy="14.754098"
     inkscape:window-width="3440"
     inkscape:window-height="1356"
     inkscape:window-x="0"
     inkscape:window-y="0"
     inkscape:window-maximized="1"
     inkscape:current-layer="svg22"
     inkscape:pageshadow="2" />
  <defs
     id="defs12">
    <linearGradient
       inkscape:collect="always"
       id="linearGradient917">
      <stop
         style="stop-color:#000000;stop-opacity:0.99607843"
         offset="0"
         id="stop913" />
      <stop
         style="stop-color:#353a3f;stop-opacity:0.99607843"
         offset="1"
         id="stop915" />
    </linearGradient>
    <linearGradient
       id="linearGradient1005-3-3"
       x1="5.2535"
       x2="9.3823996"
       y1="15.383"
       y2="2.9421"
       gradientTransform="matrix(0.99999,0,0,0.99999,1.632,-0.61743)"
       gradientUnits="userSpaceOnUse">
      <stop
         stop-color="#fa8200"
         offset="0"
         id="stop2" />
      <stop
         stop-color="#ff9600"
         offset=".36953"
         id="stop4" />
      <stop
         stop-color="#ffb400"
         offset="1"
         id="stop6" />
    </linearGradient>
    <filter
       id="filter4014"
       x="-0.062499933"
       y="-0.057692993"
       width="1.1249999"
       height="1.115386"
       color-interpolation-filters="sRGB">
      <feGaussianBlur
         stdDeviation="1.093751"
         id="feGaussianBlur9" />
    </filter>
    <linearGradient
       inkscape:collect="always"
       xlink:href="#linearGradient3487"
       id="linearGradient3403"
       gradientUnits="userSpaceOnUse"
       x1="6.9491749"
       y1="4.5549412"
       x2="11.215498"
       y2="59.052471" />
    <linearGradient
       id="linearGradient3487">
      <stop
         style="stop-color:#32373c;stop-opacity:1"
         offset="0"
         id="stop3481" />
      <stop
         id="stop3483"
         offset="0.36804965"
         style="stop-color:#1a1a1a;stop-opacity:1" />
      <stop
         style="stop-color:#31363b;stop-opacity:1"
         offset="1"
         id="stop3485" />
    </linearGradient>
    <linearGradient
       inkscape:collect="always"
       xlink:href="#linearGradient20604"
       id="linearGradient20558"
       gradientUnits="userSpaceOnUse"
       x1="25.802212"
       y1="20.373846"
       x2="25.111048"
       y2="58.912758" />
    <linearGradient
       id="linearGradient20604">
      <stop
         id="stop20598"
         offset="0"
         style="stop-color:#3d3d3d;stop-opacity:1" />
      <stop
         style="stop-color:#000000;stop-opacity:1"
         offset="0.61772454"
         id="stop20600" />
      <stop
         id="stop20602"
         offset="1"
         style="stop-color:#3d3d3d;stop-opacity:1" />
    </linearGradient>
    <filter
       inkscape:collect="always"
       style="color-interpolation-filters:sRGB"
       id="filter20720"
       x="-0.017024755"
       y="-0.016457183"
       width="1.0340491"
       height="1.0329144">
      <feGaussianBlur
         inkscape:collect="always"
         stdDeviation="0.14745661"
         id="feGaussianBlur20722" />
    </filter>
    <linearGradient
       gradientTransform="translate(0.36067797,-0.13016949)"
       xlink:href="#linearGradient4555"
       id="linearGradient4557"
       x1="43.499737"
       y1="64.011795"
       x2="44.141731"
       y2="0.30621234"
       gradientUnits="userSpaceOnUse" />
    <linearGradient
       id="linearGradient4555">
      <stop
         style="stop-color:#141618;stop-opacity:1"
         offset="0"
         id="stop4551" />
      <stop
         id="stop4559"
         offset="0.51820582"
         style="stop-color:#686868;stop-opacity:1" />
      <stop
         style="stop-color:#31363b;stop-opacity:1"
         offset="1"
         id="stop4553" />
    </linearGradient>
    <filter
       style="color-interpolation-filters:sRGB"
       id="filter4601"
       x="-0.030244762"
       width="1.0604895"
       y="-0.030100647"
       height="1.0602013">
      <feGaussianBlur
         stdDeviation="0.014790289"
         id="feGaussianBlur4603" />
    </filter>
    <linearGradient
       inkscape:collect="always"
       xlink:href="#linearGradient917"
       id="linearGradient919"
       x1="7.400631"
       y1="41.743092"
       x2="33.063145"
       y2="7.1074457"
       gradientUnits="userSpaceOnUse"
       gradientTransform="matrix(0.44401941,0,0,0.44401941,0.42102657,0.35174663)" />
    <linearGradient
       id="p"
       x1="25"
       x2="25"
       y1="8"
       y2="2"
       gradientUnits="userSpaceOnUse"
       xlink:href="#j" />
    <linearGradient
       id="j"
       x2="0"
       y1="30"
       y2="8"
       gradientUnits="userSpaceOnUse">
      <stop
         stop-color="#cea476"
         offset="0"
         id="stop9" />
      <stop
         stop-color="#dab58b"
         offset="1"
         id="stop11" />
    </linearGradient>
    <linearGradient
       id="linearGradient910"
       x2="0"
       y1="30"
       y2="8"
       gradientUnits="userSpaceOnUse">
      <stop
         stop-color="#cea476"
         offset="0"
         id="stop906" />
      <stop
         stop-color="#dab58b"
         offset="1"
         id="stop908" />
    </linearGradient>
    <linearGradient
       id="k"
       x2="0"
       y1="30"
       y2="8"
       gradientUnits="userSpaceOnUse">
      <stop
         stop-color="#cfd2d5"
         offset="0"
         id="stop29" />
      <stop
         stop-color="#eff0f1"
         offset="1"
         id="stop31" />
    </linearGradient>
    <linearGradient
       id="o"
       x1="411.427"
       x2="411.427"
       y1="543.79999"
       y2="512.79999"
       gradientTransform="matrix(0.35,0,0,0.70968,-120,-355.923)"
       gradientUnits="userSpaceOnUse">
      <stop
         stop-color="#73ba25"
         offset="0"
         id="stop14" />
      <stop
         stop-color="#81c13b"
         stop-opacity=".85"
         offset="1"
         id="stop16" />
    </linearGradient>
    <linearGradient
       id="n"
       x1="411.57001"
       x2="411.57001"
       y1="512.80103"
       y2="503.80099"
       gradientTransform="matrix(0.66667,0,0,0.66667,-256.38,-333.867)"
       gradientUnits="userSpaceOnUse"
       xlink:href="#i">
      <stop
         stop-color="#ebc69a"
         offset="0"
         id="stop24" />
      <stop
         stop-color="#f4e0c8"
         stop-opacity="0"
         offset="1"
         id="stop26" />
    </linearGradient>
    <linearGradient
       id="i"
       x1="408.57001"
       x2="408.57001"
       y1="512.79797"
       y2="504.698"
       gradientTransform="matrix(0.66667,0,0,-0.37037,-256.38,197.926)"
       gradientUnits="userSpaceOnUse">
      <stop
         stop-color="#ebc69a"
         offset="0"
         id="stop19" />
      <stop
         stop-color="#73ba25"
         stop-opacity="0"
         offset="1"
         id="stop21" />
    </linearGradient>
    <linearGradient
       id="m"
       x1="18"
       x2="30"
       y1="18"
       y2="30"
       gradientUnits="userSpaceOnUse">
      <stop
         stop-color="#292c2f"
         offset="0"
         id="stop3" />
      <stop
         stop-opacity="0"
         offset="1"
         id="stop5" />
    </linearGradient>
    <linearGradient
       id="l"
       x1="22"
       x2="22"
       y1="30"
       y2="8"
       gradientTransform="matrix(0,-1,-1,0,44,44)"
       gradientUnits="userSpaceOnUse"
       xlink:href="#k" />
    <linearGradient
       id="linearGradient938"
       x2="0"
       y1="30"
       y2="8"
       gradientUnits="userSpaceOnUse">
      <stop
         stop-color="#cfd2d5"
         offset="0"
         id="stop934" />
      <stop
         stop-color="#eff0f1"
         offset="1"
         id="stop936" />
    </linearGradient>
    <linearGradient
       inkscape:collect="always"
       xlink:href="#j"
       id="linearGradient956"
       gradientUnits="userSpaceOnUse"
       y1="30"
       x2="0"
       y2="8" />
    <linearGradient
       inkscape:collect="always"
       xlink:href="#k"
       id="linearGradient958"
       gradientUnits="userSpaceOnUse"
       y1="30"
       x2="0"
       y2="8" />
    <linearGradient
       inkscape:collect="always"
       xlink:href="#i"
       id="linearGradient960"
       gradientUnits="userSpaceOnUse"
       gradientTransform="matrix(0.66667,0,0,-0.37037,-256.38,197.926)"
       x1="408.57001"
       y1="512.79797"
       x2="408.57001"
       y2="504.698" />
  </defs>
  <rect
     style="display:inline;fill:url(#linearGradient919);fill-opacity:1;fill-rule:evenodd;stroke:none;stroke-width:0.41197;stroke-linejoin:round;stroke-miterlimit:7.8"
     id="rect1192"
     width="18.68638"
     height="18.965004"
     x="1.8254201"
     y="1.6920147"
     ry="0"
     inkscape:label="arriere" />
  <g
     id="g894"
     transform="matrix(0.67402537,0,0,0.67402537,0.76314331,-0.46463478)">
    <path
       d="M 6,2 2,8 H 30 L 26,2 H 7 Z"
       fill="url(#p)"
       fill-rule="evenodd"
       id="path34"
       style="fill:url(#p)" />
    <path
       d="M 2,8 H 30 V 30 H 2 Z"
       fill="url(#j)"
       id="path36"
       style="fill:url(#linearGradient956)" />
    <path
       d="M 2,8 H 14 V 30 H 2 Z"
       fill="url(#k)"
       id="path38"
       style="fill:url(#linearGradient958)" />
    <path
       d="M 14,8 H 30 V 30 H 14 Z"
       fill="url(#o)"
       id="path40"
       style="fill:url(#o)" />
    <path
       d="m 3,24 v 5 h 5 v -5 z m 1,1 h 1 v 1 h 1 v -1 h 1 v 2 H 6 v 1 H 5 V 27 H 4 Z"
       fill="#5c4c3e"
       id="path42" />
    <g
       stroke-opacity="0.55"
       stroke-width="1.867"
       id="g50">
      <path
         d="m 14,2 v 9 l 1,-1 1,1 1,-1 c 0,0 1,1 1,0.972 V 2 Z"
         fill="#f4e0c8"
         id="path44" />
      <path
         d="m 14,2 h 4 v 6 h -4 z"
         fill="url(#n)"
         id="path46"
         style="fill:url(#n)" />
      <path
         d="m 14,8 v 3 l 1,-1 1,1 1,-1 c 0,0 1,1 1,0.973 V 8 Z"
         fill="url(#i)"
         id="path48"
         style="fill:url(#linearGradient960)" />
    </g>
    <path
       d="M 18.969,16.844 30,27.875 v -6.36 L 26.243,17.757 22,16 Z M 16.844,18.969 27.875,30 h -6.36 L 17.757,26.243 16,22 Z"
       fill="url(#m)"
       opacity="0.2"
       id="path52"
       style="fill:url(#m)" />
    <path
       d="m 28,22 a 5.96,5.96 0 0 1 -0.844,3.031 l -2.687,-2.687 0.718,-0.719 1.625,1.625 c 0.052,-0.195 0.098,-0.39 0.125,-0.594 0.008,-0.052 0.026,-0.103 0.032,-0.156 C 26.986,22.332 27,22.173 27,22 a 5,5 0 0 0 -5,-5 c -0.243,0 -0.486,0.028 -0.719,0.063 -0.136,0.02 -0.274,0.031 -0.406,0.062 a 4.737,4.737 0 0 0 -0.813,0.281 c -0.03,0.014 -0.063,0.018 -0.093,0.032 -0.092,0.04 -0.164,0.108 -0.25,0.156 -0.008,0.004 -0.023,-0.005 -0.032,0 l -0.718,-0.75 A 5.96,5.96 0 0 1 22,16 a 6,6 0 0 1 6,6 z m -2.969,5.156 A 5.96,5.96 0 0 1 22,28 6,6 0 0 1 16,22 5.96,5.96 0 0 1 16.844,18.969 l 0.75,0.75 1.906,1.937 -0.688,0.688 -1.625,-1.594 c -0.05,0.195 -0.097,0.39 -0.125,0.594 -0.007,0.052 -0.025,0.103 -0.03,0.156 C 17.014,21.668 17,21.827 17,22 c 0,0.173 0.014,0.332 0.031,0.5 0.017,0.168 0.03,0.337 0.063,0.5 A 5.017,5.017 0 0 0 22,27 c 0.248,0 0.48,-0.028 0.719,-0.063 0.136,-0.02 0.274,-0.031 0.406,-0.062 0.287,-0.067 0.548,-0.167 0.813,-0.281 0.03,-0.013 0.063,-0.018 0.093,-0.032 0.09,-0.04 0.165,-0.108 0.25,-0.156 h 0.032 z"
       fill="url(#l)"
       id="path54"
       style="fill:url(#l)" />
    <path
       d="m 2,29 v 1 h 12 v -1 z"
       fill="#adb1b3"
       id="path56" />
    <path
       d="m 14,29 h 16 v 1 H 14 Z"
       fill="#649e26"
       id="path58" />
  </g>
  <path
     style="display:inline;mix-blend-mode:normal;fill:url(#linearGradient3403);fill-opacity:1;stroke:url(#linearGradient20558);stroke-width:1.16242;stroke-linecap:butt;stroke-linejoin:round;stroke-miterlimit:4;stroke-dasharray:none;stroke-opacity:1;filter:url(#filter20720)"
     d="M 4.7043071,3.9814882 4.6913695,60.80196 H 58.59546 l 1.022155,-2.866369 c 0,0 -23.87537,0.766388 -32.844441,-4.140386 C 16.257548,48.042344 11.401114,4.0978197 11.401114,4.0978197 Z"
     id="path1686"
     sodipodi:nodetypes="ccccscc"
     transform="matrix(0.33384918,0,0,0.33384918,0.46529738,0.36279665)"
     inkscape:label="folder" />
  <rect
     style="display:inline;fill:none;fill-opacity:1;stroke:url(#linearGradient4557);stroke-width:3.71366;stroke-linejoin:round;stroke-miterlimit:7.8;stroke-dasharray:none;stroke-opacity:0.995146;filter:url(#filter4601)"
     id="rect4539"
     width="62.567089"
     height="62.866646"
     x="1.0323594"
     y="0.59551275"
     ry="6.2447233"
     rx="5.8029528"
     transform="matrix(0.31274415,0,0,0.3121067,1.0262182,1.0374042)"
     inkscape:label="contour" />
</svg>
